content/blogs/regnskap/innganende-faktura/fakturabehandling-automatisering.svg

<svg xmlns="http://www.w3.org/2000/svg" width="800" height="500"><defs><linearGradient id="a" x1="0%" x2="100%" y1="0%" y2="100%"><stop offset="0%" style="stop-color:#f8f9fa;stop-opacity:1"/><stop offset="100%" style="stop-color:#e9ecef;stop-opacity:1"/></linearGradient><linearGradient id="c" x1="0%" x2="0%" y1="0%" y2="100%"><stop offset="0%" style="stop-color:#007bff;stop-opacity:.1"/><stop offset="100%" style="stop-color:#007bff;stop-opacity:.3"/></linearGradient><linearGradient id="b" x1="0%" x2="100%" y1="0%" y2="0%"><stop offset="0%" style="stop-color:#28a745;stop-opacity:.2"/><stop offset="100%" style="stop-color:#17a2b8;stop-opacity:.2"/></linearGradient></defs><path fill="url(#a)" d="M0 0h800v500H0z"/><text x="400" y="40" fill="#2c3e50" font-family="Arial, sans-serif" font-size="24" font-weight="bold" text-anchor="middle">
    Automatisert Fakturabehandling
  </text><text fill="#495057" font-family="Arial, sans-serif" font-size="16" font-weight="bold" transform="translate(50 80)">Inngående Fakturaer</text><g transform="translate(50 100)"><rect width="60" height="80" fill="#fff" stroke="#dee2e6" rx="3"/><rect width="50" height="15" x="5" y="5" fill="#007bff" rx="2"/><path stroke="#dee2e6" d="M5 30h50M5 40h50M5 50h50"/><text x="30" y="115" fill="#6c757d" font-family="Arial, sans-serif" font-size="10" text-anchor="middle">Papir</text></g><g transform="translate(130 100)"><rect width="60" height="80" fill="#f8f9fa" stroke="#28a745" stroke-width="2" rx="3"/><text x="30" y="25" fill="#28a745" font-family="Arial, sans-serif" font-size="12" text-anchor="middle">@</text><text x="30" y="45" fill="#495057" font-family="Arial, sans-serif" font-size="8" text-anchor="middle">PDF</text><text x="30" y="60" fill="#495057" font-family="Arial, sans-serif" font-size="8" text-anchor="middle">Vedlegg</text><text x="30" y="115" fill="#6c757d" font-family="Arial, sans-serif" font-size="10" text-anchor="middle">E-post</text></g><g transform="translate(210 100)"><rect width="60" height="80" fill="#e3f2fd" stroke="#2196f3" stroke-width="2" rx="3"/><circle cx="30" cy="30" r="8" fill="#2196f3"/><text x="30" y="35" fill="#fff" font-family="Arial, sans-serif" font-size="8" text-anchor="middle">e</text><text x="30" y="55" fill="#495057" font-family="Arial, sans-serif" font-size="8" text-anchor="middle">XML/EDI</text><text x="30" y="115" fill="#6c757d" font-family="Arial, sans-serif" font-size="10" text-anchor="middle">eFaktura</text></g><path fill="none" stroke="#6c757d" stroke-width="3" d="M280 140h40M315 135l5 5-5 5"/><g transform="translate(340 80)"><rect width="200" height="120" fill="url(#b)" stroke="#17a2b8" stroke-width="2" rx="10"/><text x="100" y="25" fill="#17a2b8" font-family="Arial, sans-serif" font-size="16" font-weight="bold" text-anchor="middle">
      AI-drevet Behandling
    </text><g font-family="Arial, sans-serif"><text fill="#495057" font-size="12" font-weight="bold" transform="translate(20 35)">OCR &amp; Tolkning:</text><text y="18" fill="#6c757d" font-size="10" transform="translate(20 35)">• Automatisk tekstgjenkjenning</text><text y="32" fill="#6c757d" font-size="10" transform="translate(20 35)">• Intelligent datafangst</text><text y="46" fill="#6c757d" font-size="10" transform="translate(20 35)">• Validering mot regler</text><text y="60" fill="#6c757d" font-size="10" transform="translate(20 35)">• Automatisk kategorisering</text></g><g fill="#17a2b8" transform="translate(150 45)"><circle cx="15" cy="15" r="12" opacity=".3"/><path d="M8 12q7-4 14 0-7 8-14 0"/><circle cx="12" cy="12" r="2"/><circle cx="18" cy="12" r="2"/></g></g><path fill="none" stroke="#6c757d" stroke-width="3" d="M560 140h40M595 135l5 5-5 5"/><g transform="translate(620 80)"><rect width="130" height="120" fill="url(#c)" stroke="#28a745" stroke-width="2" rx="10"/><text x="65" y="25" fill="#28a745" font-family="Arial, sans-serif" font-size="14" font-weight="bold" text-anchor="middle">
      Validering &amp; Ruting
    </text><g fill="#6c757d" font-family="Arial, sans-serif" font-size="10"><text transform="translate(10 35)">✓ Leverandørvalidering</text><text y="15" transform="translate(10 35)">✓ MVA-kontroll</text><text y="30" transform="translate(10 35)">✓ Beløpsvalidering</text><text y="45" transform="translate(10 35)">✓ Automatisk ruting</text><text y="60" transform="translate(10 35)">✓ Godkjenningsflyt</text></g></g><path fill="none" stroke="#6c757d" stroke-width="2" d="M200 220v40M195 255l5 5 5-5M440 220v40M435 255l5 5 5-5M685 220v40M680 255l5 5 5-5"/><g transform="translate(50 280)"><rect width="140" height="80" fill="#fff3cd" stroke="#ffc107" stroke-width="2" rx="8"/><text x="70" y="20" fill="#856404" font-family="Arial, sans-serif" font-size="12" font-weight="bold" text-anchor="middle">
        Godkjenningsflyt
      </text><text x="10" y="40" fill="#6c757d" font-family="Arial, sans-serif" font-size="10">• Automatisk ruting</text><text x="10" y="55" fill="#6c757d" font-family="Arial, sans-serif" font-size="10">• Parallell godkjenning</text><text x="10" y="70" fill="#6c757d" font-family="Arial, sans-serif" font-size="10">• Eskalering ved forsinkelse</text></g><g transform="translate(220 280)"><rect width="140" height="80" fill="#d1ecf1" stroke="#17a2b8" stroke-width="2" rx="8"/><text x="70" y="20" fill="#0c5460" font-family="Arial, sans-serif" font-size="12" font-weight="bold" text-anchor="middle">
        Automatisk Bokføring
      </text><text x="10" y="40" fill="#6c757d" font-family="Arial, sans-serif" font-size="10">• Intelligent kontering</text><text x="10" y="55" fill="#6c757d" font-family="Arial, sans-serif" font-size="10">• MVA-behandling</text><text x="10" y="70" fill="#6c757d" font-family="Arial, sans-serif" font-size="10">• ERP-integrasjon</text></g><g transform="translate(390 280)"><rect width="140" height="80" fill="#d4edda" stroke="#28a745" stroke-width="2" rx="8"/><text x="70" y="20" fill="#155724" font-family="Arial, sans-serif" font-size="12" font-weight="bold" text-anchor="middle">
        Betalingsautomatisering
      </text><text x="10" y="40" fill="#6c757d" font-family="Arial, sans-serif" font-size="10">• Planlagt betaling</text><text x="10" y="55" fill="#6c757d" font-family="Arial, sans-serif" font-size="10">• Kontantstrømoptimalisering</text><text x="10" y="70" fill="#6c757d" font-family="Arial, sans-serif" font-size="10">• Bankavstemming</text></g><g transform="translate(560 280)"><rect width="140" height="80" fill="#f8d7da" stroke="#dc3545" stroke-width="2" rx="8"/><text x="70" y="20" fill="#721c24" font-family="Arial, sans-serif" font-size="12" font-weight="bold" text-anchor="middle">
        Avvikshåndtering
      </text><text x="10" y="40" fill="#6c757d" font-family="Arial, sans-serif" font-size="10">• Automatisk flagging</text><text x="10" y="55" fill="#6c757d" font-family="Arial, sans-serif" font-size="10">• Manuell oppfølging</text><text x="10" y="70" fill="#6c757d" font-family="Arial, sans-serif" font-size="10">• Læring og forbedring</text></g><g transform="translate(50 390)"><rect width="700" height="80" fill="#f8f9fa" stroke="#dee2e6" rx="8"/><text x="350" y="20" fill="#2c3e50" font-family="Arial, sans-serif" font-size="16" font-weight="bold" text-anchor="middle">
      Fordeler med Automatisering
    </text><g font-family="Arial, sans-serif"><text fill="#28a745" font-size="12" font-weight="bold" transform="translate(30 30)">70-90% Tidsbesparelse</text><text y="18" fill="#6c757d" font-size="10" transform="translate(30 30)">Raskere behandling av fakturaer</text><text x="170" fill="#007bff" font-size="12" font-weight="bold" transform="translate(30 30)">Reduserte Feil</text><text x="170" y="18" fill="#6c757d" font-size="10" transform="translate(30 30)">Eliminerer manuelle tastefeil</text><text x="320" fill="#17a2b8" font-size="12" font-weight="bold" transform="translate(30 30)">Bedre Kontroll</text><text x="320" y="18" fill="#6c757d" font-size="10" transform="translate(30 30)">Konsistent regelanvendelse</text><text x="470" fill="#6f42c1" font-size="12" font-weight="bold" transform="translate(30 30)">Skalerbarhet</text><text x="470" y="18" fill="#6c757d" font-size="10" transform="translate(30 30)">Håndterer økende volum</text></g></g><text x="100" fill="#6c757d" font-family="Arial, sans-serif" font-size="10" text-anchor="middle" transform="translate(340 50)">
      OCR • AI • Machine Learning • Workflow
    </text></svg>

<svg width="800" height="500" xmlns="http://www.w3.org/2000/svg">
  <defs>
    <linearGradient id="bgGradient" x1="0%" y1="0%" x2="100%" y2="100%">
      <stop offset="0%" style="stop-color:#f8f9fa;stop-opacity:1" />
      <stop offset="100%" style="stop-color:#e9ecef;stop-opacity:1" />
    </linearGradient>
    <linearGradient id="techGradient" x1="0%" y1="0%" x2="0%" y2="100%">
      <stop offset="0%" style="stop-color:#007bff;stop-opacity:0.1" />
      <stop offset="100%" style="stop-color:#007bff;stop-opacity:0.3" />
    </linearGradient>
    <linearGradient id="aiGradient" x1="0%" y1="0%" x2="100%" y2="0%">
      <stop offset="0%" style="stop-color:#28a745;stop-opacity:0.2" />
      <stop offset="100%" style="stop-color:#17a2b8;stop-opacity:0.2" />
    </linearGradient>
  </defs>
  

  <rect width="800" height="500" fill="url(#bgGradient)"/>
  

  <text x="400" y="40" text-anchor="middle" font-family="Arial, sans-serif" font-size="24" font-weight="bold" fill="#2c3e50">
    Automatisert Fakturabehandling
  </text>
  

  <g transform="translate(50, 80)">
    <text x="0" y="0" font-family="Arial, sans-serif" font-size="16" font-weight="bold" fill="#495057">Inngående Fakturaer</text>
    

    <g transform="translate(0, 20)">
      <rect x="0" y="0" width="60" height="80" fill="white" stroke="#dee2e6" stroke-width="1" rx="3"/>
      <rect x="5" y="5" width="50" height="15" fill="#007bff" rx="2"/>
      <line x1="5" y1="30" x2="55" y2="30" stroke="#dee2e6" stroke-width="1"/>
      <line x1="5" y1="40" x2="55" y2="40" stroke="#dee2e6" stroke-width="1"/>
      <line x1="5" y1="50" x2="55" y2="50" stroke="#dee2e6" stroke-width="1"/>
      <text x="30" y="115" text-anchor="middle" font-family="Arial, sans-serif" font-size="10" fill="#6c757d">Papir</text>
    </g>
    

    <g transform="translate(80, 20)">
      <rect x="0" y="0" width="60" height="80" fill="#f8f9fa" stroke="#28a745" stroke-width="2" rx="3"/>
      <text x="30" y="25" text-anchor="middle" font-family="Arial, sans-serif" font-size="12" fill="#28a745">@</text>
      <text x="30" y="45" text-anchor="middle" font-family="Arial, sans-serif" font-size="8" fill="#495057">PDF</text>
      <text x="30" y="60" text-anchor="middle" font-family="Arial, sans-serif" font-size="8" fill="#495057">Vedlegg</text>
      <text x="30" y="115" text-anchor="middle" font-family="Arial, sans-serif" font-size="10" fill="#6c757d">E-post</text>
    </g>
    

    <g transform="translate(160, 20)">
      <rect x="0" y="0" width="60" height="80" fill="#e3f2fd" stroke="#2196f3" stroke-width="2" rx="3"/>
      <circle cx="30" cy="30" r="8" fill="#2196f3"/>
      <text x="30" y="35" text-anchor="middle" font-family="Arial, sans-serif" font-size="8" fill="white">e</text>
      <text x="30" y="55" text-anchor="middle" font-family="Arial, sans-serif" font-size="8" fill="#495057">XML/EDI</text>
      <text x="30" y="115" text-anchor="middle" font-family="Arial, sans-serif" font-size="10" fill="#6c757d">eFaktura</text>
    </g>
  </g>
  

  <path d="M 280 140 L 320 140" stroke="#6c757d" stroke-width="3" fill="none"/>
  <path d="M 315 135 L 320 140 L 315 145" stroke="#6c757d" stroke-width="3" fill="none"/>
  

  <g transform="translate(340, 80)">
    <rect x="0" y="0" width="200" height="120" fill="url(#aiGradient)" stroke="#17a2b8" stroke-width="2" rx="10"/>
    <text x="100" y="25" text-anchor="middle" font-family="Arial, sans-serif" font-size="16" font-weight="bold" fill="#17a2b8">
      AI-drevet Behandling
    </text>
    

    <g transform="translate(20, 35)">
      <text x="0" y="0" font-family="Arial, sans-serif" font-size="12" font-weight="bold" fill="#495057">OCR &amp; Tolkning:</text>
      <text x="0" y="18" font-family="Arial, sans-serif" font-size="10" fill="#6c757d">• Automatisk tekstgjenkjenning</text>
      <text x="0" y="32" font-family="Arial, sans-serif" font-size="10" fill="#6c757d">• Intelligent datafangst</text>
      <text x="0" y="46" font-family="Arial, sans-serif" font-size="10" fill="#6c757d">• Validering mot regler</text>
      <text x="0" y="60" font-family="Arial, sans-serif" font-size="10" fill="#6c757d">• Automatisk kategorisering</text>
    </g>
    

    <g transform="translate(150, 45)">
      <circle cx="15" cy="15" r="12" fill="#17a2b8" opacity="0.3"/>
      <path d="M 8 12 Q 15 8 22 12 Q 15 20 8 12" fill="#17a2b8"/>
      <circle cx="12" cy="12" r="2" fill="#17a2b8"/>
      <circle cx="18" cy="12" r="2" fill="#17a2b8"/>
    </g>
  </g>
  

  <path d="M 560 140 L 600 140" stroke="#6c757d" stroke-width="3" fill="none"/>
  <path d="M 595 135 L 600 140 L 595 145" stroke="#6c757d" stroke-width="3" fill="none"/>
  

  <g transform="translate(620, 80)">
    <rect x="0" y="0" width="130" height="120" fill="url(#techGradient)" stroke="#28a745" stroke-width="2" rx="10"/>
    <text x="65" y="25" text-anchor="middle" font-family="Arial, sans-serif" font-size="14" font-weight="bold" fill="#28a745">
      Validering &amp; Ruting
    </text>
    

    <g transform="translate(10, 35)">
      <text x="0" y="0" font-family="Arial, sans-serif" font-size="10" fill="#6c757d">✓ Leverandørvalidering</text>
      <text x="0" y="15" font-family="Arial, sans-serif" font-size="10" fill="#6c757d">✓ MVA-kontroll</text>
      <text x="0" y="30" font-family="Arial, sans-serif" font-size="10" fill="#6c757d">✓ Beløpsvalidering</text>
      <text x="0" y="45" font-family="Arial, sans-serif" font-size="10" fill="#6c757d">✓ Automatisk ruting</text>
      <text x="0" y="60" font-family="Arial, sans-serif" font-size="10" fill="#6c757d">✓ Godkjenningsflyt</text>
    </g>
  </g>
  

  <path d="M 200 220 L 200 260" stroke="#6c757d" stroke-width="2" fill="none"/>
  <path d="M 195 255 L 200 260 L 205 255" stroke="#6c757d" stroke-width="2" fill="none"/>
  
  <path d="M 440 220 L 440 260" stroke="#6c757d" stroke-width="2" fill="none"/>
  <path d="M 435 255 L 440 260 L 445 255" stroke="#6c757d" stroke-width="2" fill="none"/>
  
  <path d="M 685 220 L 685 260" stroke="#6c757d" stroke-width="2" fill="none"/>
  <path d="M 680 255 L 685 260 L 690 255" stroke="#6c757d" stroke-width="2" fill="none"/>
  

  <g transform="translate(50, 280)">

    <g transform="translate(0, 0)">
      <rect x="0" y="0" width="140" height="80" fill="#fff3cd" stroke="#ffc107" stroke-width="2" rx="8"/>
      <text x="70" y="20" text-anchor="middle" font-family="Arial, sans-serif" font-size="12" font-weight="bold" fill="#856404">
        Godkjenningsflyt
      </text>
      <text x="10" y="40" font-family="Arial, sans-serif" font-size="10" fill="#6c757d">• Automatisk ruting</text>
      <text x="10" y="55" font-family="Arial, sans-serif" font-size="10" fill="#6c757d">• Parallell godkjenning</text>
      <text x="10" y="70" font-family="Arial, sans-serif" font-size="10" fill="#6c757d">• Eskalering ved forsinkelse</text>
    </g>
    

    <g transform="translate(170, 0)">
      <rect x="0" y="0" width="140" height="80" fill="#d1ecf1" stroke="#17a2b8" stroke-width="2" rx="8"/>
      <text x="70" y="20" text-anchor="middle" font-family="Arial, sans-serif" font-size="12" font-weight="bold" fill="#0c5460">
        Automatisk Bokføring
      </text>
      <text x="10" y="40" font-family="Arial, sans-serif" font-size="10" fill="#6c757d">• Intelligent kontering</text>
      <text x="10" y="55" font-family="Arial, sans-serif" font-size="10" fill="#6c757d">• MVA-behandling</text>
      <text x="10" y="70" font-family="Arial, sans-serif" font-size="10" fill="#6c757d">• ERP-integrasjon</text>
    </g>
    

    <g transform="translate(340, 0)">
      <rect x="0" y="0" width="140" height="80" fill="#d4edda" stroke="#28a745" stroke-width="2" rx="8"/>
      <text x="70" y="20" text-anchor="middle" font-family="Arial, sans-serif" font-size="12" font-weight="bold" fill="#155724">
        Betalingsautomatisering
      </text>
      <text x="10" y="40" font-family="Arial, sans-serif" font-size="10" fill="#6c757d">• Planlagt betaling</text>
      <text x="10" y="55" font-family="Arial, sans-serif" font-size="10" fill="#6c757d">• Kontantstrømoptimalisering</text>
      <text x="10" y="70" font-family="Arial, sans-serif" font-size="10" fill="#6c757d">• Bankavstemming</text>
    </g>
    

    <g transform="translate(510, 0)">
      <rect x="0" y="0" width="140" height="80" fill="#f8d7da" stroke="#dc3545" stroke-width="2" rx="8"/>
      <text x="70" y="20" text-anchor="middle" font-family="Arial, sans-serif" font-size="12" font-weight="bold" fill="#721c24">
        Avvikshåndtering
      </text>
      <text x="10" y="40" font-family="Arial, sans-serif" font-size="10" fill="#6c757d">• Automatisk flagging</text>
      <text x="10" y="55" font-family="Arial, sans-serif" font-size="10" fill="#6c757d">• Manuell oppfølging</text>
      <text x="10" y="70" font-family="Arial, sans-serif" font-size="10" fill="#6c757d">• Læring og forbedring</text>
    </g>
  </g>
  

  <g transform="translate(50, 390)">
    <rect x="0" y="0" width="700" height="80" fill="#f8f9fa" stroke="#dee2e6" stroke-width="1" rx="8"/>
    <text x="350" y="20" text-anchor="middle" font-family="Arial, sans-serif" font-size="16" font-weight="bold" fill="#2c3e50">
      Fordeler med Automatisering
    </text>
    

    <g transform="translate(30, 30)">
      <text x="0" y="0" font-family="Arial, sans-serif" font-size="12" font-weight="bold" fill="#28a745">70-90% Tidsbesparelse</text>
      <text x="0" y="18" font-family="Arial, sans-serif" font-size="10" fill="#6c757d">Raskere behandling av fakturaer</text>
      
      <text x="170" y="0" font-family="Arial, sans-serif" font-size="12" font-weight="bold" fill="#007bff">Reduserte Feil</text>
      <text x="170" y="18" font-family="Arial, sans-serif" font-size="10" fill="#6c757d">Eliminerer manuelle tastefeil</text>
      
      <text x="320" y="0" font-family="Arial, sans-serif" font-size="12" font-weight="bold" fill="#17a2b8">Bedre Kontroll</text>
      <text x="320" y="18" font-family="Arial, sans-serif" font-size="10" fill="#6c757d">Konsistent regelanvendelse</text>
      
      <text x="470" y="0" font-family="Arial, sans-serif" font-size="12" font-weight="bold" fill="#6f42c1">Skalerbarhet</text>
      <text x="470" y="18" font-family="Arial, sans-serif" font-size="10" fill="#6c757d">Håndterer økende volum</text>
    </g>
  </g>
  

  <g transform="translate(340, 50)">
    <text x="100" y="0" text-anchor="middle" font-family="Arial, sans-serif" font-size="10" fill="#6c757d">
      OCR • AI • Machine Learning • Workflow
    </text>
  </g>
</svg>
